site/assets/svgs/regular/square-plus.svg

<svg xmlns="http://www.w3.org/2000/svg" viewBox="0 0 448 512"><!--! Font Awesome Free 6.6.0 by @fontawesome - https://fontawesome.com License - https://fontawesome.com/license/free (Icons: CC BY 4.0, Fonts: SIL OFL 1.1, Code: MIT License) Copyright 2024 Fonticons, Inc. --><path d="M64 80c-8.8 0-16 7.2-16 16l0 320c0 8.8 7.2 16 16 16l320 0c8.8 0 16-7.2 16-16l0-320c0-8.8-7.2-16-16-16L64 80zM0 96C0 60.7 28.7 32 64 32l320 0c35.3 0 64 28.7 64 64l0 320c0 35.3-28.7 64-64 64L64 480c-35.3 0-64-28.7-64-64L0 96zM200 344l0-64-64 0c-13.3 0-24-10.7-24-24s10.7-24 24-24l64 0 0-64c0-13.3 10.7-24 24-24s24 10.7 24 24l0 64 64 0c13.3 0 24 10.7 24 24s-10.7 24-24 24l-64 0 0 64c0 13.3-10.7 24-24 24s-24-10.7-24-24z"/></svg>

<svg xmlns="http://www.w3.org/2000/svg" viewBox="0 0 448 512"><!--! Font Awesome Free 6.2.1 by @fontawesome - https://fontawesome.com License - https://fontawesome.com/license/free (Icons: CC BY 4.0, Fonts: SIL OFL 1.1, Code: MIT License) Copyright 2022 Fonticons, Inc. --><path d="M200 344V280H136C122.7 280 112 269.3 112 256C112 242.7 122.7 232 136 232H200V168C200 154.7 210.7 144 224 144C237.3 144 248 154.7 248 168V232H312C325.3 232 336 242.7 336 256C336 269.3 325.3 280 312 280H248V344C248 357.3 237.3 368 224 368C210.7 368 200 357.3 200 344zM0 96C0 60.65 28.65 32 64 32H384C419.3 32 448 60.65 448 96V416C448 451.3 419.3 480 384 480H64C28.65 480 0 451.3 0 416V96zM48 96V416C48 424.8 55.16 432 64 432H384C392.8 432 400 424.8 400 416V96C400 87.16 392.8 80 384 80H64C55.16 80 48 87.16 48 96z"/></svg>
